X: 1
T: Missa Alleluia / Kyrie
N: Derived from Rue1001a-Missa_Alleluia-Kyrie.krn
C: Pierre de la Rue
%%abc-version 2.0
%%abcx-abcm2ps-target-version 5.9.1 (29 Sep 2008)
%%abc-creator hum2abc beta
%%abcx-conversion-date 2019/02/17 08:01:09
%%abc-edited-by Jesse Rodin
%%abc-edited-by Megan K. Eagen 1/11/2012
%%abcx-initial-encoding-date 2012/11/18/
%%humdrum-veritas 4228682601
%%humdrum-veritas-data 2847252243
%%linebreak <none>
%%barnumbers 0
L: 1/4
M: 3/1
Q: 1/2=120
V: 1 clef=treble
V: 2 clef=treble-8
V: 3 clef=treble-8
V: 4 clef=bass
V: 5 clef=bass
K: F
[V:1] z12 | 
[V:2] F4B4B4 | 
[V:3] z12 | 
[V:4] z12 | 
[V:5] z12 | 
[V:1] F4B4B4 | 
[V:2] A4G8 | 
[V:3] z12 | 
[V:4] z12 | 
[V:5] z12 | 
[V:1] A2G4FED4 | 
[V:2] c4B2c3=B=B2 | 
[V:3] z12 | 
[V:4] z4z4G,,4 | 
[V:5] z12 | 
[V:1] z2E2C2E2D4 | 
[V:2] c8z2G2 | 
[V:3] z12 | 
[V:4] C,4C,4B,,4 | 
[V:5] z12 | 
[V:1] C4z4A4 | 
[V:2] ABcde2d3cc2 | 
[V:3] z12 | 
[V:4] A,,3B,,C,2D,2A,,4 | 
[V:5] z4z4F,,4 | 
[V:1] F2G2F2D2A4 | 
[V:2] d6B2c4 | 
[V:3] z12 | 
[V:4] D,3E,F,2G,3^F,F,2 | 
[V:5] B,,4B,,4A,,4 | 
[V:1] B4B2G4FE | 
[V:2] B4z2B2c2A2 | 
[V:3] z12 | 
[V:4] G,2F,E,D,4C,4 | 
[V:5] G,,8C,4 | 
[V:1] D2E2C2D2A4 | 
[V:2] B2G2A2G3FF2 | 
[V:3] z12 | 
[V:4] z4z4C,4 | 
[V:5] B,,2C,4G,,2A,,4 | 
[V:1] B2G2B2A3GFE | 
[V:2] G2d4cBA3G | 
[V:3] z12 | 
[V:4] D,4B,,2F,3E,D,C, | 
[V:5] G,,4z4F,,4 | 
[V:1] D8z2A2 | 
[V:2] B6AGF4 | 
[V:3] z4F8 | 
[V:4] B,,2D,4B,,2C,4 | 
[V:5] B,,4B,,4A,,4 | 
[V:1] B2G4FED4- | 
[V:2] G8z2GA | 
[V:3] B8B4- | 
[V:4] D,12 | 
[V:5] G,,12 | 
[V:1] D4A4A4 | 
[V:2] Bcdef2g3^f^f2 | 
[V:3] B4A8 | 
[V:4] D,6C,2D,4 | 
[V:5] z12 | 
[V:1] B2G3FEDC3D | 
[V:2] g3fd2e3dc2- | 
[V:3] G12- | 
[V:4] z12 | 
[V:5] z2C,2B,,2C,4B,,A,, | 
[V:1] D4z2C3DE2 | 
[V:2] c2=B2c4z4 | 
[V:3] G4c8 | 
[V:4] D,4C,2A,,3B,,C,2 | 
[V:5] G,,4A,,3B,,C,2A,,2 | 
[V:1] D3EE2C4A2 | 
[V:2] z4c3de2f2- | 
[V:3] B4c8 | 
[V:4] G,,4C,8 | 
[V:5] D,4C,4A,,2F,,2 | 
[V:1] B4A2F3GA2 | 
[V:2] fee2f2d2fedc | 
[V:3] G4A8 | 
[V:4] B,,4C,2D,2C,2F,2 | 
[V:5] G,,4F,,8 | 
[V:1] B2G4FED3E | 
[V:2] B2c2d2c4=B2 | 
[V:3] G12- | 
[V:4] G,2E,2D,8 | 
[V:5] z4G,,8 | 
[V:1] E12 ||  
[V:2] c12 ||  
[V:3] G12 ||  
[V:4] C,12 ||  
[V:5] C,12 ||  
[V:1]  [K:F] [K:clef=treble][M:2/1]F6ED | 
[V:2]  [K:F] [K:clef=treble-8][M:2/1]c6BA | 
[V:3]  [K:F] [K:clef=treble-8][M:2/1]z8 :
[V:4]  [K:F] [K:clef=bass][M:2/1]F,8- | 
[V:5]  [K:F] [K:clef=bass][M:2/1]z8 | 
[V:1] F3GA4 | 
[V:2] d2cBA4 | 
[V:3] x8 :
[V:4] F,8 | 
[V:5] z8 | 
[V:1] D8 | 
[V:2] G4d4- | 
[V:3] x8 :
[V:4] B,8 | 
[V:5] z4B,,4- | 
[V:1] z4F4- | 
[V:2] d2cBd3e | 
[V:3] x8 :
[V:4] B,8 | 
[V:5] B,,2A,,G,,B,,2C,2 | 
[V:1] F2EDF3G | 
[V:2] f6ed | 
[V:3] x8 :
[V:4] A,8- | 
[V:5] D,8- | 
[V:1] A4D4 | 
[V:2] f2d2f4 | 
[V:3] x8 | 
[V:4] A,8 | 
[V:5] D,8 | 
[V:1] z2B4AG | 
[V:2] g3fd4 | 
[V:3] z8 :
[V:4] G,6F,E, | 
[V:5] G,,8 | 
[V:1] A2B2c2A2- | 
[V:2] z2d2e2c2- | 
[V:3] x8 :
[V:4] F,2G,2C,2F,2- | 
[V:5] z8 | 
[V:1] A2GFA2GF | 
[V:2] c2f3ed2- | 
[V:3] z8 :
[V:4] F,2E,D,F,3G, | 
[V:5] z8 | 
[V:1] E4D2F2- | 
[V:2] d2^c2d4- | 
[V:3] x8 :
[V:4] A,4z2D,2- | 
[V:5] z8 | 
[V:1] F2EDF3G | 
[V:2] d4d4 | 
[V:3] F8- :
[V:4] D,2C,B,,D,3E, | 
[V:5] z8 | 
[V:1] A4D4 | 
[V:2] c4B4 | 
[V:3] F8 | 
[V:4] F,4B,,2D,2- | 
[V:5] z4z2B,,2- | 
[V:1] z8 | 
[V:2] d4z4 | 
[V:3] B8- :
[V:4] D,2C,B,,D,2E,2 | 
[V:5] B,,2A,,G,,B,,2C,2 | 
[V:1] z8 | 
[V:2] z8 | 
[V:3] B8 :
[V:4] F,2B,,4D,2- | 
[V:5] D,2G,,4B,,2- | 
[V:1] z4z2F2- | 
[V:2] d8- | 
[V:3] B8- :
[V:4] D,2C,B,,D,3E, | 
[V:5] B,,2A,,G,,B,,3C, | 
[V:1] F2EDF2G2 | 
[V:2] d8 | 
[V:3] B8 :
[V:4] F,8 | 
[V:5] D,8- | 
[V:1] A2D4F2- | 
[V:2] d8- | 
[V:3] A8- :
[V:4] z8 | 
[V:5] D,8- | 
[V:1] F2EDF4 | 
[V:2] d8 | 
[V:3] A8 | 
[V:4] z4D,4 | 
[V:5] D,8 | 
[V:1] G8 | 
[V:2] B4c3B | 
[V:3] G8- :
[V:4] D,2E,4D,C, | 
[V:5] G,,4C,4- | 
[V:1] z8 | 
[V:2] G2c2B2c2 | 
[V:3] G8- :
[V:4] E,2F,2G,2C,2- | 
[V:5] C,2B,,A,,G,,2G,2- | 
[V:1] z8 | 
[V:2] G2c3BGA | 
[V:3] G8- :
[V:4] C,2E,4D,C, | 
[V:5] G,2C,4B,,A,, | 
[V:1] z4D4 | 
[V:2] B2c4=B2 | 
[V:3] G8 :
[V:4] E,3F,G,4 | 
[V:5] G,,8 | 
[V:1] E6DC | 
[V:2] c4z4 | 
[V:3] c8- :
[V:4] z2C,4B,,A,, | 
[V:5] z8 | 
[V:1] E2F2G2C2 | 
[V:2] z4z2e2- | 
[V:3] c8 | 
[V:4] C,3D,E,2A,,2 | 
[V:5] z8 | 
[V:1] G8 | 
[V:2] e2dcd2e2 | 
[V:3] B8 :
[V:4] B,,8 | 
[V:5] G,,8 | 
[V:1] A2c4BA | 
[V:2] f4f2c2- | 
[V:3] c8- :
[V:4] A,,4F,,4 | 
[V:5] F,,2A,,4G,,F,, | 
[V:1] A2GFE3D | 
[V:2] c2BAG4 | 
[V:3] c8 :
[V:4] C,8 | 
[V:5] A,,3B,,C,4 | 
[V:1] F8 | 
[V:2] z2F2c4 | 
[V:3] A8 :
[V:4] z2C,2F,4 | 
[V:5] F,,4z2F,,2 | 
[V:1] z2C2G3C | 
[V:2] c6BA | 
[V:3] G8- :
[V:4] E,4E,4- | 
[V:5] C,4C,4- | 
[V:1] G2A2B4 | 
[V:2] G2c2d2e2 | 
[V:3] G8 | 
[V:4] E,2D,C,B,,3A,, | 
[V:5] C,2B,,A,,G,,4 | 
[V:1] A4z4 | 
[V:2] f6ed | 
[V:3] [M:2/1]A6B2 | 
[V:4] C,6B,,2 | 
[V:5] F,,8 | 
[V:1] z2C3DEF | 
[V:2] c2e4d2- | 
[V:3] c4B4- | 
[V:4] A,,4G,,2B,,2- | 
[V:5] z8 | 
[V:1] G2A2B4 | 
[V:2] d2c3BB2 | 
[V:3] B2c2d4 | 
[V:4] B,,2A,,2G,,4 | 
[V:5] z8 | 
[V:1] A4z4 | 
[V:2] c2A2G4 | 
[V:3] c8 | 
[V:4] z2C,4_E,2- | 
[V:5] z2F,,2C,4- | 
[V:1] z2C2G3F | 
[V:2] z8 | 
[V:3] A4B4 | 
[V:4] E,2D,C,B,,3C, | 
[V:5] C,2B,,A,,G,,3A,, | 
[V:1] G2A2B3G | 
[V:2] z2c2d2e2 | 
[V:3] G8 | 
[V:4] D,2_E,2D,2C,2- | 
[V:5] B,,2C,2B,,2C,2 | 
[V:1] A2F2B4 | 
[V:2] f2d4cB | 
[V:3] F8- | 
[V:4] C,2D,2B,,4 | 
[V:5] F,,2B,,4A,,G,, | 
[V:1] A8- | 
[V:2] d2c2A2F2 | 
[V:3] F8- | 
[V:4] z2C,2D,4 | 
[V:5] F,,8- | 
[V:1] A8 ||  
[V:2] c8 ||  
[V:3] F8 ||  
[V:4] C,8 ||  
[V:5] F,,8 ||  
[V:1]  [K:F] [K:clef=treble][M:3/1]F8A4 | 
[V:2]  [K:F] [K:clef=treble-8][M:3/1]d8c4 | 
[V:3]  [K:F] [K:clef=treble-8][M:3/1]z12 | 
[V:4]  [K:F] [K:clef=bass][M:3/1]F,8F,4 | 
[V:5]  [K:F] [K:clef=bass][M:3/1]B,,8A,,4 | 
[V:1] B6AGF2G2 | 
[V:2] B3cd2d4cB | 
[V:3] z12 | 
[V:4] G,4B,6A,G, | 
[V:5] G,,8B,,3C, | 
[V:1] D2G4F2D2E2- | 
[V:2] A2B2A4G4 | 
[V:3] z12 | 
[V:4] F,2G,2D,4z4 | 
[V:5] D,2G,,2D,4B,,2C,2- | 
[V:1] EDCB,A,4z4 | 
[V:2] z2c4c2d4 | 
[V:3] z12 | 
[V:4] z4F,8 | 
[V:5] C,B,,A,,G,,F,,4B,,4 | 
[V:1] A4B6AG | 
[V:2] c4B3cd2d2- | 
[V:3] z4z4F4 | 
[V:4] F,4G,4B,4- | 
[V:5] A,,4G,,2B,,4B,,2- | 
[V:1] F2G2D2G4F2 | 
[V:2] d2cBd8 | 
[V:3] B4B4A4 | 
[V:4] B,2A,G,F,2G,2D,4 | 
[V:5] B,,2B,,4G,,2D,4 | 
[V:1] D2E3DCB,A,4 | 
[V:2] z4z2c4A2 | 
[V:3] G8c4 | 
[V:4] z4z4F,4 | 
[V:5] B,,2C,3B,,A,,G,,F,,2A,,2 | 
[V:1] z2A4B2c2A2 | 
[V:2] B2A4d2e2f2 | 
[V:3] B2c4G2A4 | 
[V:4] G,2E,2F,2D,2C,4 | 
[V:5] G,,2A,,2F,,2B,,2A,,2F,,2 | 
[V:1] B3ABAGFG4 | 
[V:2] B2d3cBAB4 | 
[V:3] G12 | 
[V:4] B,,3C,D,8 | 
[V:5] G,,12 | 
[V:1] A8z2D2- | 
[V:2] A8z2F2- | 
[V:3] z12 | 
[V:4] z2D,3E,F,G,A,2D,2 | 
[V:5] z4D,4A,,2F,2- | 
[V:1] DEFGABcAB3A | 
[V:2] FGABcdec2df2- | 
[V:3] z4z4F4 | 
[V:4] F,4E,4D,4- | 
[V:5] F,2E,D,C,4B,,4- | 
[V:1] F2G2D2G4F2 | 
[V:2] fedcB2d3cA2 | 
[V:3] B4B4A4 | 
[V:4] D,8z2D,2- | 
[V:5] B,,4B,,2G,,2D,4 | 
[V:1] D2E3DCB,A,2A2 | 
[V:2] B2c4c4A2 | 
[V:3] G8c4 | 
[V:4] D,2C,3D,E,2F,4 | 
[V:5] G,,2C,3B,,A,,G,,F,,4 | 
[V:1] G2A3GF4E2 | 
[V:2] B2A2c8 | 
[V:3] B2c4A2G4 | 
[V:4] G,2F,2C,4z4 | 
[V:5] z2F,,3G,,A,,B,,C,4 | 
[V:1] F2CDEFGAB4 | 
[V:2] z2c3defg2f2- | 
[V:3] A3Bc2B3cd2 | 
[V:4] C,6B,,C,D,2B,,2 | 
[V:5] F,,2A,,4G,,3A,,B,,2 | 
[V:1] A2G4F3EE2 | 
[V:2] fee2f2d2c4 | 
[V:3] c4A2B2G4 | 
[V:4] C,4z4z4 | 
[V:5] F,,2C,2D,2B,,2C,4 | 
[V:1] F12 |]  
[V:2] A12 & c12 |]  
[V:3] F12 |]  
[V:4] C,12 |]  
[V:5] F,,12 |]  



